icons/light/ini.svg

<svg width="16" height="16" viewBox="0 0 16 16" fill="none" xmlns="http://www.w3.org/2000/svg">
<path d="M9.70703 1.29297L12.707 4.29297L13 5V14L12 15H10V14H12V6H8V2H3V10H2V2L3 1H9L9.70703 1.29297ZM9 5H12L9 2V5Z" fill="#424242"/>
<path d="M2.69231 11.4462V12.0615H1.95897V14.3821H2.69231V15H0.384615V14.3821H1.11795V12.0615H0.384615V11.4462H2.69231ZM4.86592 15L3.93002 12.141C3.94198 12.2179 3.9548 12.3111 3.96848 12.4205C3.98386 12.5282 3.99839 12.6487 4.01207 12.7821C4.02574 12.9137 4.03686 13.0538 4.0454 13.2026C4.05395 13.3513 4.05822 13.5034 4.05822 13.659V15H3.34284V11.4462H4.39156L5.29925 14.2897C5.28045 14.1821 5.26079 14.0538 5.24027 13.9051C5.22147 13.7547 5.20523 13.5872 5.19156 13.4026C5.17788 13.2179 5.17104 13.0197 5.17104 12.8077V11.4462H5.88643V15H4.86592ZM8.84465 11.4462V12.0615H8.11132V14.3821H8.84465V15H6.53696V14.3821H7.27029V12.0615H6.53696V11.4462H8.84465Z" fill="#424242"/>
</svg>

<svg xmlns="http://www.w3.org/2000/svg" width="16" height="16" fill="#424242" xmlns:v="https://vecta.io/nano"><path d="M9.707 1.293l3 3L13 5v9l-1 1h-2v-1h2V6H8V2H3v8H2V2l1-1h6l.707.293zM9 5h3L9 2v3zm-6.308 6.446v.615h-.733v2.321h.733V15H.385v-.618h.733v-2.321H.385v-.615h2.308zM4.866 15l-.936-2.859.038.28.044.362.033.421.013.456V15h-.715v-3.554h1.049L5.3 14.29l-.059-.385-.049-.502-.021-.595v-1.362h.715V15h-1.02zm3.979-3.554v.615h-.733v2.321h.733V15H6.537v-.618h.733v-2.321h-.733v-.615h2.308z"/></svg>
